X: 36664
T: Shaskeen, The
R: reel
M: 4/4
K: Gmajor
E|DG~G2 ABcA|dfed cA~A2|BdBG ~A3F|GBAG FDDE|
DG~G2 ABcA|dfed cAAe|f2de fdcA|AGFA ~G3:|
B|dggf g2fg|~a3g fdde|~f3d egfg|abag fddc|
dggf g2fg|~a3g fdde|f2de fdcA|AGFA ~G3B|
dggf g2fg|~a3g fdde|~f3d egfg|abag fddc|
~B3G ~A3F|GBAG FDDe|f2de fdcA|AGFA ~G3||
B|dggf g2fg|abag fddc|BdBG ~A3F|GBAG FDDB|
dggf g2fg|~a3g fdde|f2de fdcA|AGFA ~G3B|
dggf g2fg|abag fddc|BdBG ~A3F|GBAG FDDA|
BG~G2 AF~F2|dfed cAAe|f2de fdcA|AGFA ~G3||

